media/costumes/U-glow.svg

<svg width="75" height="76" xmlns="http://www.w3.org/2000/svg"><path fill="#0CC" d="M74.772 14.572c0 .44-.02.88-.08 1.32-.44 3.68-2.38 7.73-6.3 10.33.18 3.5-.06 8.04-.72 13.82-.36 3.12-.71 6.2-1.06 9.26-.02.19-.05.38-.08.57-1.03 6.14-2.87 11.05-5.61 15.01-1.28 1.92-3.09 3.71-5.51 5.47-2.42 1.75-4.71 2.92-7.01 3.58-4.33 1.31-8.16 1.95-11.72 1.95-2.64 0-5.08-.35-7.27-1.05-4.84-1.49-9.16-4.24-12.76-8.13-2.34-2.52-4.06-5.02-5.27-7.64-1.44-3.09-2.26-7.34-2.65-13.72-.01-.07-.01-.13-.01-.2-.19-4.24-.5-10.19-.93-17.77-3.87-1.97-6.61-5.46-7.54-9.77-.38-1.74-.33-3.54.15-5.26 1.34-4.84 4.88-8.65 9.72-10.45 1.29-.49 2.79-.81 5.54-1.16a39.432 39.432 0 0 1 3.96-.65c1.14-.09 2.5-.11 4.75-.04h2.74c2.65-.15 5.4.22 8.23 1.08 2.2.66 4.11 1.85 5.6 3.42.04-.01.08-.02.13-.03.63-.18 1.57-.4 4.1-.91.19-.04.38-.07.57-.1.44-.08 2.32-.42 10.24-1.94 3.53-.71 7.06-.55 10.07.53 2.07.73 4.88 2.36 6.9 5.99.79 1.42 1.82 3.62 1.82 6.49z"/><path fill="#FFF" d="M63.776 14.568c-.293 2.408-2.346 3.523-6.156 3.348-.176 1.821-.264 4.523-.264 8.106.232 2.878.029 7.137-.615 12.774a5852.78 5852.78 0 0 1-1.057 9.251c-.762 4.525-2.053 8.078-3.869 10.662-.529.823-1.482 1.734-2.859 2.732-1.379.999-2.595 1.644-3.65 1.938-3.285.998-6.157 1.498-8.62 1.498-1.525 0-2.845-.178-3.958-.529-3.05-.942-5.718-2.646-8.005-5.118-1.525-1.646-2.639-3.235-3.343-4.767-.821-1.765-1.378-5.029-1.671-9.795-.235-5.472-.675-13.68-1.319-24.622 0-.411-.264-.999-.792-1.765-2.229-.177-3.518-.293-3.87-.354-1.525-.411-2.434-1.293-2.727-2.647.407-1.471 1.397-2.5 2.972-3.088.464-.176 1.688-.382 3.669-.618.641-.176 1.602-.353 2.884-.529.698-.058 1.922-.058 3.67 0h3.286c1.421-.117 2.989.089 4.706.617.828.234 1.243.821 1.243 1.762 0 1.175-.47 2.027-1.407 2.555-.646.413-1.73.677-3.254.793-1.056-.058-2.375.09-3.959.441-.411.235-.615.646-.615 1.234.058.47.088.911.088 1.32-.06 1.881.028 4.554.264 8.02.176 2.469.264 3.996.264 4.583v5.463c0 .176.058.617.176 1.322.117.705.177 1.116.177 1.232v6.521c.176.47.352 1.175.527 2.114.176 2.644 1.539 5.172 4.09 7.579 2.551 2.408 5.175 3.612 7.873 3.612 1.113 0 3.166-.411 6.157-1.234 1.172-.352 2.257-1.204 3.254-2.557.997-1.351 1.612-2.644 1.847-3.878.293-.528.645-1.352 1.057-2.469.527-2.937 1.201-7.402 2.023-13.397.584-6.698.672-12.693.264-17.982-.705-.058-1.791.06-3.256.352-1.642.411-2.785.616-3.43.616-1.525 0-2.639-.645-3.343-1.936-.234-1.172.381-2.052 1.848-2.639.409-.116 1.495-.352 3.255-.703.116 0 3.693-.674 10.73-2.023 1.76-.352 3.195-.321 4.311.088.352.118.674.441.967.969.29.53.437.912.437 1.148z"/></svg>

<svg version="1.1" width="75" height="76" xmlns="http://www.w3.org/2000/svg" xmlns:xlink="http://www.w3.org/1999/xlink">
  <!-- Exported by Scratch - http://scratch.mit.edu/ -->
  <g id="ID0.7161592706106603">
    <g id="ID0.5325923874042928">
      <g id="ID0.42691003857180476">
        <path id="ID0.781138111371547" fill="#00CCCC" d="M 74.772 14.572 C 74.772 15.012 74.752 15.452 74.692 15.892 C 74.252 19.572 72.312 23.622 68.392 26.222 C 68.572 29.722 68.332 34.262 67.672 40.042 C 67.312 43.162 66.962 46.242 66.612 49.302 C 66.592 49.492 66.562 49.682 66.532 49.872 C 65.502 56.012 63.662 60.922 60.922 64.882 C 59.642 66.802 57.832 68.592 55.412 70.352 C 52.992 72.102 50.702 73.272 48.402 73.932 C 44.072 75.242 40.242 75.882 36.682 75.882 C 34.042 75.882 31.602 75.532 29.412 74.832 C 24.572 73.342 20.252 70.592 16.652 66.702 C 14.312 64.182 12.592 61.682 11.382 59.062 C 9.942 55.972 9.122 51.722 8.732 45.342 C 8.722 45.272 8.722 45.212 8.722 45.142 C 8.532 40.902 8.222 34.952 7.792 27.372 C 3.922 25.402 1.182 21.912 0.252 17.602 C -0.128 15.862 -0.078 14.062 0.402 12.342 C 1.742 7.502 5.282 3.692 10.122 1.892 C 11.412 1.402 12.912 1.082 15.662 0.732 C 16.592 0.522 17.692 0.332 19.022 0.152 C 19.222 0.122 19.422 0.102 19.622 0.082 C 20.762 -0.008 22.122 -0.028 24.372 0.042 L 27.112 0.042 C 29.762 -0.108 32.512 0.262 35.342 1.122 C 37.542 1.782 39.452 2.972 40.942 4.542 C 40.982 4.532 41.022 4.522 41.072 4.512 C 41.702 4.332 42.642 4.112 45.172 3.602 C 45.362 3.562 45.552 3.532 45.742 3.502 C 46.182 3.422 48.062 3.082 55.982 1.562 C 59.512 0.852 63.042 1.012 66.052 2.092 C 68.122 2.822 70.932 4.452 72.952 8.082 C 73.742 9.502 74.772 11.702 74.772 14.572 Z "/>
      </g>
    </g>
    <g id="ID0.8019739398732781">
      <path id="ID0.07389174913987517" fill="#FFFFFF" d="M 63.776 14.568 C 63.483 16.976 61.430 18.091 57.620 17.916 C 57.444 19.737 57.356 22.439 57.356 26.022 C 57.588 28.900 57.385 33.159 56.741 38.796 C 56.387 41.911 56.036 44.993 55.684 48.047 C 54.922 52.572 53.631 56.125 51.815 58.709 C 51.286 59.532 50.333 60.443 48.956 61.441 C 47.577 62.440 46.361 63.085 45.306 63.379 C 42.021 64.377 39.149 64.877 36.686 64.877 C 35.161 64.877 33.841 64.699 32.728 64.348 C 29.678 63.406 27.010 61.702 24.723 59.230 C 23.198 57.584 22.084 55.995 21.380 54.463 C 20.559 52.698 20.002 49.434 19.709 44.668 C 19.474 39.196 19.034 30.988 18.390 20.046 C 18.390 19.635 18.126 19.047 17.598 18.281 C 15.369 18.104 14.080 17.988 13.728 17.927 C 12.203 17.516 11.294 16.634 11.001 15.280 C 11.408 13.809 12.398 12.780 13.973 12.192 C 14.437 12.016 15.661 11.810 17.642 11.574 C 18.283 11.398 19.244 11.221 20.526 11.045 C 21.224 10.987 22.448 10.987 24.196 11.045 C 24.078 11.045 25.173 11.045 27.482 11.045 C 28.903 10.928 30.471 11.134 32.188 11.662 C 33.016 11.896 33.431 12.483 33.431 13.424 C 33.431 14.599 32.961 15.451 32.024 15.979 C 31.378 16.392 30.294 16.656 28.770 16.772 C 27.714 16.714 26.395 16.862 24.811 17.213 C 24.400 17.448 24.196 17.859 24.196 18.447 C 24.254 18.917 24.284 19.358 24.284 19.767 C 24.224 21.648 24.312 24.321 24.548 27.787 C 24.724 30.256 24.812 31.783 24.812 32.370 L 24.812 37.833 C 24.812 38.009 24.870 38.450 24.988 39.155 C 25.105 39.860 25.165 40.271 25.165 40.387 L 25.165 46.908 C 25.341 47.378 25.517 48.083 25.692 49.022 C 25.868 51.666 27.231 54.194 29.782 56.601 C 32.333 59.009 34.957 60.213 37.655 60.213 C 38.768 60.213 40.821 59.802 43.812 58.979 C 44.984 58.627 46.069 57.775 47.066 56.422 C 48.063 55.071 48.678 53.778 48.913 52.544 C 49.206 52.016 49.558 51.192 49.970 50.075 C 50.497 47.138 51.171 42.673 51.993 36.678 C 52.577 29.980 52.665 23.985 52.257 18.696 C 51.552 18.638 50.466 18.756 49.001 19.048 C 47.359 19.459 46.216 19.664 45.571 19.664 C 44.046 19.664 42.932 19.019 42.228 17.728 C 41.994 16.556 42.609 15.676 44.076 15.089 C 44.485 14.973 45.571 14.737 47.331 14.386 C 47.447 14.386 51.024 13.712 58.061 12.363 C 59.821 12.011 61.256 12.042 62.372 12.451 C 62.724 12.569 63.046 12.892 63.339 13.420 C 63.629 13.950 63.776 14.332 63.776 14.568 Z "/>
    </g>
  </g>
</svg>
